public/favicon.svg

<svg fill="none" height="200" viewBox="0 0 200 200" width="200" xmlns="http://www.w3.org/2000/svg"><path d="m0 0h200v200h-200z" fill="#010c1e"/><path d="m65.584 102.512c0 .832.128 1.611.384 2.336.2773.725.6613 1.355 1.152 1.888s1.0773.96 1.76 1.28c.704.299 1.4933.448 2.368.448.8533 0 1.6427-.149 2.368-.448.7467-.32 1.3867-.747 1.92-1.28s.9493-1.163 1.248-1.888.448-1.504.448-2.336-.1493-1.611-.448-2.336c-.2987-.7253-.7147-1.3547-1.248-1.888s-1.1733-.9493-1.92-1.248c-.7253-.32-1.5147-.48-2.368-.48-.8747 0-1.664.16-2.368.48-.6827.2987-1.2693.7147-1.76 1.248s-.8747 1.1627-1.152 1.888c-.256.725-.384 1.504-.384 2.336zm13.664 7.488h-2.112v-2.496h-.064c-.3413.512-.7467.949-1.216 1.312s-.96.661-1.472.896-1.0453.405-1.6.512c-.5333.107-1.0453.16-1.536.16-1.1733 0-2.2507-.192-3.232-.576-.96-.405-1.792-.96-2.496-1.664s-1.2587-1.536-1.664-2.496c-.384-.96-.576-2.005-.576-3.136s.192-2.176.576-3.136c.4053-.96.96-1.792 1.664-2.496s1.536-1.248 2.496-1.632c.9813-.4053 2.0587-.608 3.232-.608.4907 0 1.0027.0533 1.536.16.5547.1067 1.088.2773 1.6.512s1.0027.5333 1.472.896.8747.8 1.216 1.312h.064v-11.712h2.112zm16.2665-8.64c0-1.4293-.4267-2.5813-1.28-3.456-.8533-.896-2.048-1.344-3.584-1.344-.6827 0-1.344.1387-1.984.416-.64.256-1.2053.608-1.696 1.056-.4693.448-.8533.96-1.152 1.536-.2773.576-.416 1.173-.416 1.792zm-10.176 1.728c.064.747.2453 1.451.544 2.112s.6933 1.237 1.184 1.728c.4907.469 1.056.843 1.696 1.12s1.3333.416 2.08.416c1.1307 0 2.1013-.256 2.912-.768.832-.533 1.4613-1.141 1.888-1.824l1.632 1.344c-.896 1.131-1.888 1.941-2.976 2.432-1.0667.491-2.2187.736-3.456.736-1.1093 0-2.144-.192-3.104-.576-.9387-.405-1.7493-.96-2.432-1.664s-1.2267-1.536-1.632-2.496c-.384-.96-.576-2.005-.576-3.136s.192-2.176.576-3.136.9173-1.792 1.6-2.496 1.4827-1.248 2.4-1.632c.9173-.4053 1.9093-.608 2.976-.608 1.1307 0 2.144.2027 3.04.608s1.6427.9493 2.24 1.632c.6187.6613 1.088 1.4507 1.408 2.368.32.896.48 1.856.48 2.88v.96zm27.9575-1.728c0-1.4293-.427-2.5813-1.28-3.456-.854-.896-2.048-1.344-3.584-1.344-.683 0-1.344.1387-1.984.416-.64.256-1.206.608-1.696 1.056-.47.448-.854.96-1.152 1.536-.278.576-.416 1.173-.416 1.792zm-10.176 1.728c.064.747.245 1.451.544 2.112.298.661.693 1.237 1.184 1.728.49.469 1.056.843 1.696 1.12s1.333.416 2.08.416c1.13 0 2.101-.256 2.912-.768.832-.533 1.461-1.141 1.888-1.824l1.632 1.344c-.896 1.131-1.888 1.941-2.976 2.432-1.067.491-2.219.736-3.456.736-1.11 0-2.144-.192-3.104-.576-.939-.405-1.75-.96-2.432-1.664-.683-.704-1.227-1.536-1.632-2.496-.384-.96-.576-2.005-.576-3.136s.192-2.176.576-3.136.917-1.792 1.6-2.496c.682-.704 1.482-1.248 2.4-1.632.917-.4053 1.909-.608 2.976-.608 1.13 0 2.144.2027 3.04.608s1.642.9493 2.24 1.632c.618.6613 1.088 1.4507 1.408 2.368.32.896.48 1.856.48 2.88v.96zm29.973-.576c0-.832-.139-1.611-.416-2.336-.256-.7253-.629-1.3547-1.12-1.888s-1.088-.9493-1.792-1.248c-.683-.32-1.461-.48-2.336-.48s-1.675.16-2.4.48c-.725.2987-1.355.7147-1.888 1.248s-.949 1.1627-1.248 1.888c-.299.725-.448 1.504-.448 2.336s.149 1.611.448 2.336.715 1.355 1.248 1.888 1.163.96 1.888 1.28c.725.299 1.525.448 2.4.448s1.653-.149 2.336-.448c.704-.32 1.301-.747 1.792-1.28s.864-1.163 1.12-1.888c.277-.725.416-1.504.416-2.336zm-13.664-7.488h2.112v2.496h.064c.341-.512.747-.9493 1.216-1.312s.96-.6613 1.472-.896 1.035-.4053 1.568-.512c.555-.1067 1.077-.16 1.568-.16 1.173 0 2.24.2027 3.2.608.981.384 1.824.928 2.528 1.632s1.248 1.536 1.632 2.496c.405.96.608 2.005.608 3.136s-.203 2.176-.608 3.136c-.384.96-.928 1.792-1.632 2.496s-1.547 1.259-2.528 1.664c-.96.384-2.027.576-3.2.576-.491 0-1.013-.053-1.568-.16-.533-.107-1.056-.277-1.568-.512s-1.003-.533-1.472-.896-.875-.8-1.216-1.312h-.064v11.712h-2.112z" fill="#d5d9e0"/><rect height="51" rx="25.5" stroke="#d5d9e0" stroke-linejoin="round" width="133.695" x="33.5" y="74.5"/></svg>

<svg width="200" height="200" viewBox="0 0 200 200" fill="none" xmlns="http://www.w3.org/2000/svg">
    <rect width="200" height="200" fill="#010C1E" />
    <path
        d="M65.584 102.512C65.584 103.344 65.712 104.123 65.968 104.848C66.2453 105.573 66.6293 106.203 67.12 106.736C67.6107 107.269 68.1973 107.696 68.88 108.016C69.584 108.315 70.3733 108.464 71.248 108.464C72.1013 108.464 72.8907 108.315 73.616 108.016C74.3627 107.696 75.0027 107.269 75.536 106.736C76.0693 106.203 76.4853 105.573 76.784 104.848C77.0827 104.123 77.232 103.344 77.232 102.512C77.232 101.68 77.0827 100.901 76.784 100.176C76.4853 99.4507 76.0693 98.8213 75.536 98.288C75.0027 97.7547 74.3627 97.3387 73.616 97.04C72.8907 96.72 72.1013 96.56 71.248 96.56C70.3733 96.56 69.584 96.72 68.88 97.04C68.1973 97.3387 67.6107 97.7547 67.12 98.288C66.6293 98.8213 66.2453 99.4507 65.968 100.176C65.712 100.901 65.584 101.68 65.584 102.512ZM79.248 110H77.136V107.504H77.072C76.7307 108.016 76.3253 108.453 75.856 108.816C75.3867 109.179 74.896 109.477 74.384 109.712C73.872 109.947 73.3387 110.117 72.784 110.224C72.2507 110.331 71.7387 110.384 71.248 110.384C70.0747 110.384 68.9973 110.192 68.016 109.808C67.056 109.403 66.224 108.848 65.52 108.144C64.816 107.44 64.2613 106.608 63.856 105.648C63.472 104.688 63.28 103.643 63.28 102.512C63.28 101.381 63.472 100.336 63.856 99.376C64.2613 98.416 64.816 97.584 65.52 96.88C66.224 96.176 67.056 95.632 68.016 95.248C68.9973 94.8427 70.0747 94.64 71.248 94.64C71.7387 94.64 72.2507 94.6933 72.784 94.8C73.3387 94.9067 73.872 95.0773 74.384 95.312C74.896 95.5467 75.3867 95.8453 75.856 96.208C76.3253 96.5707 76.7307 97.008 77.072 97.52H77.136V85.808H79.248V110ZM95.5145 101.36C95.5145 99.9307 95.0878 98.7787 94.2345 97.904C93.3812 97.008 92.1865 96.56 90.6505 96.56C89.9678 96.56 89.3065 96.6987 88.6665 96.976C88.0265 97.232 87.4612 97.584 86.9705 98.032C86.5012 98.48 86.1172 98.992 85.8185 99.568C85.5412 100.144 85.4025 100.741 85.4025 101.36H95.5145ZM85.3385 103.088C85.4025 103.835 85.5838 104.539 85.8825 105.2C86.1812 105.861 86.5758 106.437 87.0665 106.928C87.5572 107.397 88.1225 107.771 88.7625 108.048C89.4025 108.325 90.0958 108.464 90.8425 108.464C91.9732 108.464 92.9438 108.208 93.7545 107.696C94.5865 107.163 95.2158 106.555 95.6425 105.872L97.2745 107.216C96.3785 108.347 95.3865 109.157 94.2985 109.648C93.2318 110.139 92.0798 110.384 90.8425 110.384C89.7332 110.384 88.6985 110.192 87.7385 109.808C86.7998 109.403 85.9892 108.848 85.3065 108.144C84.6238 107.44 84.0798 106.608 83.6745 105.648C83.2905 104.688 83.0985 103.643 83.0985 102.512C83.0985 101.381 83.2905 100.336 83.6745 99.376C84.0585 98.416 84.5918 97.584 85.2745 96.88C85.9572 96.176 86.7572 95.632 87.6745 95.248C88.5918 94.8427 89.5838 94.64 90.6505 94.64C91.7812 94.64 92.7945 94.8427 93.6905 95.248C94.5865 95.6533 95.3332 96.1973 95.9305 96.88C96.5492 97.5413 97.0185 98.3307 97.3385 99.248C97.6585 100.144 97.8185 101.104 97.8185 102.128V103.088H85.3385ZM113.296 101.36C113.296 99.9307 112.869 98.7787 112.016 97.904C111.162 97.008 109.968 96.56 108.432 96.56C107.749 96.56 107.088 96.6987 106.448 96.976C105.808 97.232 105.242 97.584 104.752 98.032C104.282 98.48 103.898 98.992 103.6 99.568C103.322 100.144 103.184 100.741 103.184 101.36H113.296ZM103.12 103.088C103.184 103.835 103.365 104.539 103.664 105.2C103.962 105.861 104.357 106.437 104.848 106.928C105.338 107.397 105.904 107.771 106.544 108.048C107.184 108.325 107.877 108.464 108.624 108.464C109.754 108.464 110.725 108.208 111.536 107.696C112.368 107.163 112.997 106.555 113.424 105.872L115.056 107.216C114.16 108.347 113.168 109.157 112.08 109.648C111.013 110.139 109.861 110.384 108.624 110.384C107.514 110.384 106.48 110.192 105.52 109.808C104.581 109.403 103.77 108.848 103.088 108.144C102.405 107.44 101.861 106.608 101.456 105.648C101.072 104.688 100.88 103.643 100.88 102.512C100.88 101.381 101.072 100.336 101.456 99.376C101.84 98.416 102.373 97.584 103.056 96.88C103.738 96.176 104.538 95.632 105.456 95.248C106.373 94.8427 107.365 94.64 108.432 94.64C109.562 94.64 110.576 94.8427 111.472 95.248C112.368 95.6533 113.114 96.1973 113.712 96.88C114.33 97.5413 114.8 98.3307 115.12 99.248C115.44 100.144 115.6 101.104 115.6 102.128V103.088H103.12ZM133.093 102.512C133.093 101.68 132.954 100.901 132.677 100.176C132.421 99.4507 132.048 98.8213 131.557 98.288C131.066 97.7547 130.469 97.3387 129.765 97.04C129.082 96.72 128.304 96.56 127.429 96.56C126.554 96.56 125.754 96.72 125.029 97.04C124.304 97.3387 123.674 97.7547 123.141 98.288C122.608 98.8213 122.192 99.4507 121.893 100.176C121.594 100.901 121.445 101.68 121.445 102.512C121.445 103.344 121.594 104.123 121.893 104.848C122.192 105.573 122.608 106.203 123.141 106.736C123.674 107.269 124.304 107.696 125.029 108.016C125.754 108.315 126.554 108.464 127.429 108.464C128.304 108.464 129.082 108.315 129.765 108.016C130.469 107.696 131.066 107.269 131.557 106.736C132.048 106.203 132.421 105.573 132.677 104.848C132.954 104.123 133.093 103.344 133.093 102.512ZM119.429 95.024H121.541V97.52H121.605C121.946 97.008 122.352 96.5707 122.821 96.208C123.29 95.8453 123.781 95.5467 124.293 95.312C124.805 95.0773 125.328 94.9067 125.861 94.8C126.416 94.6933 126.938 94.64 127.429 94.64C128.602 94.64 129.669 94.8427 130.629 95.248C131.61 95.632 132.453 96.176 133.157 96.88C133.861 97.584 134.405 98.416 134.789 99.376C135.194 100.336 135.397 101.381 135.397 102.512C135.397 103.643 135.194 104.688 134.789 105.648C134.405 106.608 133.861 107.44 133.157 108.144C132.453 108.848 131.61 109.403 130.629 109.808C129.669 110.192 128.602 110.384 127.429 110.384C126.938 110.384 126.416 110.331 125.861 110.224C125.328 110.117 124.805 109.947 124.293 109.712C123.781 109.477 123.29 109.179 122.821 108.816C122.352 108.453 121.946 108.016 121.605 107.504H121.541V119.216H119.429V95.024Z"
        fill="#D5D9E0" />
    <rect x="33.5" y="74.5" width="133.695" height="51" rx="25.5" stroke="#D5D9E0" stroke-linejoin="round" />
</svg>
